picto/truck-right-framed.svg

<svg class="color-immutable" width="30" height="30" viewBox="0 0 30 30" fill="none" xmlns="http://www.w3.org/2000/svg"><path d="M30.0021 0H0.0020752V30H30.0021V0Z" fill="#2D327D"/><path d="M25.5021 3C26.3271 3 27.0021 3.675 27.0021 4.5V25.5C27.0021 26.325 26.3271 27 25.5021 27H4.50208C3.67708 27 3.00208 26.325 3.00208 25.5V4.5C3.00208 3.675 3.67708 3 4.50208 3H25.5021ZM25.5021 2.625H4.50208C3.4682 2.625 2.62708 3.46613 2.62708 4.5V25.5C2.62708 26.5339 3.4682 27.375 4.50208 27.375H25.5021C26.536 27.375 27.3771 26.5339 27.3771 25.5V4.5C27.3771 3.46613 26.536 2.625 25.5021 2.625Z" fill="white"/><path d="M18.0749 19.35C16.7909 19.35 15.7499 20.391 15.7499 21.675C15.7499 22.2465 15.9561 22.77 16.2989 23.175C16.7249 23.6798 17.3624 24 18.0749 24C18.7874 24 19.4249 23.6798 19.8509 23.175C20.1936 22.77 20.3999 22.2465 20.3999 21.675C20.3999 20.391 19.3589 19.35 18.0749 19.35ZM18.0749 22.875C17.4119 22.875 16.8749 22.338 16.8749 21.675C16.8749 21.012 17.4119 20.475 18.0749 20.475C18.7379 20.475 19.2749 21.012 19.2749 21.675C19.2749 22.338 18.7379 22.875 18.0749 22.875Z" fill="white"/><path d="M14.6263 20.775H6.00134V22.275H14.6263V20.775Z" fill="white"/><path d="M23.9541 16.0005L23.2783 13.5247C23.1201 12.9352 22.5853 12.525 21.9741 12.525H15.7506L15.7476 19.4422C16.3341 18.831 17.1598 18.45 18.0748 18.45C19.8523 18.45 21.2938 19.8877 21.2998 21.6637V21.675V21.9C21.2998 22.1071 21.4677 22.275 21.6748 22.275H23.6248C23.8319 22.275 23.9998 22.1071 23.9998 21.9L24.0006 21.675V16.35C24.0006 16.2322 23.9848 16.1145 23.9541 16.0005ZM22.05 13.2C22.3215 13.2 22.5561 13.3822 22.6266 13.6447L23.1628 15.6525C23.1711 15.6847 23.1756 15.717 23.1756 15.75C23.1756 15.957 23.0076 16.125 22.8006 16.125H18.0006C17.7936 16.125 17.6256 15.957 17.6256 15.75V13.575C17.6256 13.368 17.7936 13.2 18.0006 13.2H22.05Z" fill="white"/><path d="M5.99988 20.0208L14.6249 20.025C14.6249 20.025 14.6249 14.175 14.6249 11.55C14.6249 11.3429 14.457 11.175 14.2499 11.175H5.99988L6.00003 13.2H11.7C11.9071 13.2 12.075 13.3679 12.075 13.575C12.075 13.7821 11.9071 13.95 11.7 13.95H6.00003V14.7H11.7C11.9071 14.7 12.075 14.8679 12.075 15.075C12.075 15.2821 11.9071 15.45 11.7 15.45H6.00003L5.99988 20.0208Z" fill="white"/></svg>

<svg class="color-immutable" width="30" height="30" viewBox="0 0 30 30" fill="none" xmlns="http://www.w3.org/2000/svg"><g clip-path="url(#a)"><path d="M30.002 0h-30v30h30V0Z" fill="#2D327D"/><path d="M25.502 3c.825 0 1.5.675 1.5 1.5v21c0 .825-.675 1.5-1.5 1.5h-21c-.825 0-1.5-.675-1.5-1.5v-21c0-.825.675-1.5 1.5-1.5h21Zm0-.375h-21A1.877 1.877 0 0 0 2.627 4.5v21c0 1.034.841 1.875 1.875 1.875h21a1.877 1.877 0 0 0 1.875-1.875v-21a1.877 1.877 0 0 0-1.875-1.875Z" fill="#fff"/><path d="M18.075 19.35a2.325 2.325 0 1 0 0 4.65 2.325 2.325 0 0 0 0-4.65Zm0 3.525a1.2 1.2 0 1 1 0-2.4 1.2 1.2 0 0 1 0 2.4ZM14.626 20.775H6.001v1.5h8.625v-1.5Z" fill="#fff"/><path d="m23.954 16-.676-2.475a1.35 1.35 0 0 0-1.304-1h-6.223l-.003 6.917a3.225 3.225 0 0 1 5.552 2.221V21.9c0 .207.168.375.375.375h1.95A.375.375 0 0 0 24 21.9v-5.55c0-.118-.015-.236-.046-.35Zm-1.904-2.8c.271 0 .506.182.577.445l.536 2.008a.375.375 0 0 1-.362.473H18a.375.375 0 0 1-.375-.376v-2.175c0-.207.168-.375.375-.375h4.049ZM6 20.02l8.625.005V11.55a.375.375 0 0 0-.375-.375H6V13.2h5.7a.375.375 0 0 1 0 .75H6v.75h5.7a.375.375 0 0 1 0 .75H6v4.57Z" fill="#fff"/></g><defs><clipPath id="a"><path fill="#fff" d="M0 0h30v30H0z"/></clipPath></defs></svg>
